X: 40875
T: Triban Gwent
R: barndance
M: 4/4
K: Dmajor
BGBd cAce|d2d2d2 dB|ABAG FEDC|D2D2 z2z2|
G2 G2 FEFG|A2A2A2 AG|F2 FE DEFG|A2 A2 z2 A2|
B2 B2 GABc|d2c2c2 A2|B2 BA BcdB|c2 cB ABce|
d2 dc d2 z2|GABc d2 z2|ABAG FEDC|D2D2 z2d2||

